icons/plexis/48/cups-launcher.svg

<svg viewBox="0 0 48 48" xmlns="http://www.w3.org/2000/svg" xmlns:xlink="http://www.w3.org/1999/xlink">
  <linearGradient id="a" gradientTransform="matrix(0 -1 1 0 -.0000015 47.999998)" gradientUnits="userSpaceOnUse" x1="1" x2="47">
    <stop offset="0" stop-color="#333"/>
    <stop offset="1" stop-color="#3d3d3d"/>
  </linearGradient>
  <path d="m47 24c0 22.703-.297 23-23 23-22.703 0-23-.297-23-23 0-22.703.297-23 23-23 22.703 0 23 .297 23 23z" fill="url(#a)"/>
  <path d="m25 10a15 15 0 0 0-15 15 15 15 0 0 0  15 15 15 15 0 0 0  15-15 15 15 0 0 0-15-15m0 2a13 13 0 0 1 13 13 13 13 0 0 1-13 13 13 13 0 0 1-13-13 13 13 0 0 1  13-13m-4.25 3c-.414 0-.75.336-.75.75v5.25h-3.25c-.414 0-.75.332-.75.746v7.504c0 .414.336.75.75.75h2.25v5h12v-5h2.25c.414 0 .75-.336.75-.75v-7.504c0-.414-.336-.746-.75-.746h-3.25v-5.25c0-.414-.336-.75-.75-.75z" opacity=".1"/>
  <path d="m19.75 14h8.5c.414 0 .75.336.75.75v9c0 .414-.336.75-.75.75h-8.5c-.414 0-.75-.336-.75-.75v-9c0-.414.336-.75.75-.75" fill="#a0a0a0"/>
  <path d="m15.75 20h16.5c.414 0 .75.332.75.746v7.504c0 .414-.336.75-.75.75h-16.5c-.414 0-.75-.336-.75-.75v-7.504c0-.414.336-.746.75-.746m0 0" fill="#d2d2d2"/>
  <path d="m18 25h12v9h-12" fill="#f9f9f9"/>
  <path d="m16 22.496v4.5l2-1.496v1.496l2-1.496v1.496l3-2.246-3-2.254v1.504l-2-1.504v1.504" fill="#007f7f"/>
  <path d="m24.22 9c-4.054-.059-7.959 1.524-10.826 4.391-5.859 5.858-5.859 15.357 0 21.21 5.858 5.859 15.357 5.859 21.21 0l-1.42-1.42c-2.436 2.439-5.741 3.812-9.188 3.813-7.18.002-13-5.82-13-13 0-7.18 5.82-13 13-13 3.447.001 6.752 1.374 9.188 3.813l1.42-1.42c-2.76-2.759-6.486-4.334-10.389-4.391" fill="#f9f9f9"/>
  <path d="m34.609 13.391l-1.42 1.42c2.439 2.436 3.813 5.741 3.813 9.187 0 3.447-1.374 6.752-3.813 9.188l1.42 1.42c2.813-2.813 4.393-6.629 4.393-10.607 0-3.978-1.58-7.794-4.393-10.607z" fill="#646464"/>
</svg>

<svg xmlns="http://www.w3.org/2000/svg" viewBox="0 0 48 48">
 <defs>
  <linearGradient id="linearGradient3764" x1="1" x2="47" gradientUnits="userSpaceOnUse" gradientTransform="matrix(0,-1,1,0,-1.5e-6,47.999998)">
   <stop style="stop-color:#333;stop-opacity:1"/>
   <stop offset="1" style="stop-color:#3d3d3d;stop-opacity:1"/>
  </linearGradient>
 </defs>
 <g>
  
  
  
 </g>
 <g>
  <path d="m 47,24 C 47,46.703 46.703,47 24,47 1.297,47 1,46.703 1,24 1,1.297 1.297,1 24,1 46.703,1 47,1.297 47,24 z" style="fill:url(#linearGradient3764);fill-opacity:1"/>
 </g>
 <g>
  <g>
   <g transform="translate(1,1)">
    <g style="opacity:0.1">
     <!-- color: #3d3d3d -->
    </g>
   </g>
  </g>
 </g>
 <g>
  <g>
   <!-- color: #3d3d3d -->
   <g>
    <path d="M 25 10 A 15 15 0 0 0 10 25 15 15 0 0 0 25 40 15 15 0 0 0 40 25 15 15 0 0 0 25 10 m 0 2 A 13 13 0 0 1 38 25 13 13 0 0 1 25 38 13 13 0 0 1 12 25 13 13 0 0 1 25 12 m -4.25 3 C 20.336 15 20 15.336 20 15.75 L 20 21 16.75 21 C 16.336 21 16 21.332 16 21.746 L 16 29.25 c 0 0.414 0.336 0.75 0.75 0.75 l 2.25 0 0 5 12 0 0 -5 2.25 0 C 33.664 30 34 29.664 34 29.25 l 0 -7.504 C 34 21.332 33.664 21 33.25 21 L 30 21 30 15.75 C 30 15.336 29.664 15 29.25 15 l -8.5 0 z" style="fill:#000;opacity:0.1;fill-opacity:1;stroke:none;fill-rule:nonzero"/>
    <path d="m 19.75,14 8.5,0 c 0.414,0 0.75,0.336 0.75,0.75 l 0,9 c 0,0.414 -0.336,0.75 -0.75,0.75 l -8.5,0 C 19.336,24.5 19,24.164 19,23.75 l 0,-9 C 19,14.336 19.336,14 19.75,14" style="fill:#a0a0a0;fill-opacity:1;stroke:none;fill-rule:nonzero"/>
    <path d="m 15.75,20 16.5,0 c 0.414,0 0.75,0.332 0.75,0.746 l 0,7.504 C 33,28.664 32.664,29 32.25,29 l -16.5,0 C 15.336,29 15,28.664 15,28.25 l 0,-7.504 C 15,20.332 15.336,20 15.75,20 m 0,0" style="fill:#d2d2d2;fill-opacity:1;stroke:none;fill-rule:nonzero"/>
    <path d="m 18 25 12 0 0 9 -12 0" style="fill:#f9f9f9;fill-opacity:1;stroke:none;fill-rule:nonzero"/>
    <path d="m 16 22.496 0 4.5 l 2 -1.496 0 1.496 2 -1.496 0 1.496 3 -2.246 -3 -2.254 0 1.504 -2 -1.504 0 1.504" style="fill:#007f7f;fill-opacity:1;stroke:none;fill-rule:nonzero"/>
   </g>
  </g>
 </g>
 <path d="m 24.22 9 c -4.054 -0.059 -7.959 1.524 -10.826 4.391 -5.859 5.858 -5.859 15.357 0 21.21 5.858 5.859 15.357 5.859 21.21 0 l -1.42 -1.42 c -2.436 2.439 -5.741 3.812 -9.188 3.813 -7.18 0.002 -13 -5.82 -13 -13 0 -7.18 5.82 -13 13 -13 3.447 0.001 6.752 1.374 9.188 3.813 l 1.42 -1.42 c -2.76 -2.759 -6.486 -4.334 -10.389 -4.391" style="fill:#f9f9f9;opacity:1;fill-opacity:1;stroke:none"/>
 <g>
  
 </g>
 <path d="m 34.609 13.391 -1.42 1.42 c 2.439 2.436 3.813 5.741 3.813 9.187 0 3.447 -1.374 6.752 -3.813 9.188 l 1.42 1.42 c 2.813 -2.813 4.393 -6.629 4.393 -10.607 0 -3.978 -1.58 -7.794 -4.393 -10.607 z" style="fill:#646464;opacity:1;fill-opacity:1;stroke:none"/>
</svg>
